tools/download-figma-icons/icons/solid/connector-type1.svg

<svg xmlns="http://www.w3.org/2000/svg" width="24" height="24" fill="none" viewBox="0 0 24 24"><path fill="currentColor" fill-rule="evenodd" d="M17.25 14.25c-.825 0-1.5-.675-1.5-1.5s.675-1.5 1.5-1.5 1.5.675 1.5 1.5-.675 1.5-1.5 1.5M13.5 7.5a2.247 2.247 0 0 1 2.25-2.25A2.247 2.247 0 0 1 18 7.5a2.247 2.247 0 0 1-2.25 2.25A2.247 2.247 0 0 1 13.5 7.5M12 18.75a2.247 2.247 0 0 1-2.25-2.25A2.247 2.247 0 0 1 12 14.25a2.247 2.247 0 0 1 2.25 2.25A2.247 2.247 0 0 1 12 18.75m-3.75-9A2.247 2.247 0 0 1 6 7.5a2.247 2.247 0 0 1 2.25-2.25A2.247 2.247 0 0 1 10.5 7.5a2.247 2.247 0 0 1-2.25 2.25m-1.5 4.5c-.825 0-1.5-.675-1.5-1.5s.675-1.5 1.5-1.5 1.5.675 1.5 1.5-.675 1.5-1.5 1.5M12 0C5.798 0 .75 5.048.75 11.25c0 5.168 3.503 9.532 8.25 10.845v1.155c0 .413.338.75.75.75h4.5c.412 0 .75-.337.75-.75v-1.155c4.747-1.312 8.25-5.677 8.25-10.845C23.25 5.048 18.203 0 12 0" clip-rule="evenodd"/></svg>

<svg width="24" height="24" viewBox="0 0 24 24" fill="none" xmlns="http://www.w3.org/2000/svg">
<path fill-rule="evenodd" clip-rule="evenodd" d="M17.25 14.25C16.425 14.25 15.75 13.575 15.75 12.75C15.75 11.925 16.425 11.25 17.25 11.25C18.075 11.25 18.75 11.925 18.75 12.75C18.75 13.575 18.075 14.25 17.25 14.25ZM13.5 7.5C13.5 6.255 14.505 5.25 15.75 5.25C16.995 5.25 18 6.255 18 7.5C18 8.745 16.995 9.75 15.75 9.75C14.505 9.75 13.5 8.745 13.5 7.5ZM12 18.75C10.755 18.75 9.75 17.745 9.75 16.5C9.75 15.255 10.755 14.25 12 14.25C13.245 14.25 14.25 15.255 14.25 16.5C14.25 17.745 13.245 18.75 12 18.75ZM8.25 9.75C7.005 9.75 6 8.745 6 7.5C6 6.255 7.005 5.25 8.25 5.25C9.495 5.25 10.5 6.255 10.5 7.5C10.5 8.745 9.495 9.75 8.25 9.75ZM6.75 14.25C5.925 14.25 5.25 13.575 5.25 12.75C5.25 11.925 5.925 11.25 6.75 11.25C7.575 11.25 8.25 11.925 8.25 12.75C8.25 13.575 7.575 14.25 6.75 14.25ZM12 0C5.7975 0 0.75 5.0475 0.75 11.25C0.75 16.4175 4.2525 20.7825 9 22.095V23.25C9 23.6625 9.3375 24 9.75 24H14.25C14.6625 24 15 23.6625 15 23.25V22.095C19.7475 20.7825 23.25 16.4175 23.25 11.25C23.25 5.0475 18.2025 0 12 0Z" fill="black"/>
</svg>
